Yaru++/status/16/battery-low-charging.svg

<svg height="16" width="16" xmlns="http://www.w3.org/2000/svg">
  <g fill="#808080">
    <path d="m8 13v-4h5v4z"/>
    <path d="m6 12.338c.01.839-.015 1.451.262 1.953.138.25.374.45.666.56s.64.15 1.078.149h4.994c.439 0 .786-.039 1.078-.148.293-.11.526-.31.664-.561.277-.502.248-1.114.258-1.953v-8.703c-.01-.839.02-1.454-.258-1.955a1.25 1.25 0 0 0 -.664-.559c-.292-.11-.64-.117-1.078-.117h-1v-1h-3v1h-.994c-.438 0-.786.01-1.078.117-.293.11-.528.308-.666.559-.277.501-.252 1.116-.262 1.955zm1-.014v-8.692c.01-.852.04-1.297.137-1.474.016-.03.057-.073.143-.106.06-.023.298-.053.726-.053h4.994c.428 0 .664.03.727.053.086.032.125.077.14.106.095.172.123.617.133 1.474v8.706c-.01.854-.038 1.298-.133 1.47-.016.03-.055.074-.14.106-.123.046-.349.086-.727.086h-4.994c-.378 0-.604-.04-.727-.086a.262.262 0 0 1 -.142-.105c-.098-.178-.137-2.35-.137-1.485z"/>
    <path d="m2 14 2.5-6h-1.5v-5l-2.5 6h1.5z"/>
  </g>
</svg>

<svg height="16" width="16" xmlns="http://www.w3.org/2000/svg">
    <g fill="gray">
        <path color="#000" d="M8 13V9h5v4z" overflow="visible" style="marker:none"/>
        <path color="#000" d="M6 12.338c.01.839-.015 1.451.262 1.953.138.25.374.45.666.56.292.11.64.15 1.078.149H13c.439 0 .786-.039 1.078-.148.293-.11.526-.31.664-.561.277-.502.248-1.114.258-1.953V3.635c-.01-.839.02-1.454-.258-1.955a1.25 1.25 0 0 0-.664-.559c-.292-.11-.64-.117-1.078-.117h-1v-1H9v1h-.994c-.438 0-.786.01-1.078.117-.293.11-.528.308-.666.559-.277.501-.252 1.116-.262 1.955zm1-.014V3.632c.01-.852.04-1.297.137-1.474.016-.03.057-.073.143-.106.06-.023.298-.053.726-.053H13c.428 0 .664.03.727.053.086.032.125.077.14.106.095.172.123.617.133 1.474v8.706c-.01.854-.038 1.298-.133 1.47-.016.03-.055.074-.14.106-.123.046-.349.086-.727.086H8.006c-.378 0-.604-.04-.727-.086a.262.262 0 0 1-.142-.105C7.039 13.631 7 11.459 7 12.324z" font-family="sans-serif" font-weight="400" overflow="visible" style="line-height:normal;font-variant-ligatures:none;font-variant-position:normal;font-variant-caps:normal;font-variant-numeric:normal;font-variant-alternates:normal;font-feature-settings:normal;text-indent:0;text-align:start;text-decoration-line:none;text-decoration-style:solid;text-decoration-color:#000;text-transform:none;shape-padding:0;isolation:auto;mix-blend-mode:normal;marker:none" white-space="normal"/>
        <path d="M2 14l2.5-6H3V3L.5 9H2z"/>
    </g>
</svg>
